X: 10471
T: Donie Nolan's
R: barndance
M: 4/4
K: Gmajor
B2BA BAGA|B2BA BAGA|Bdde dBGA|BAAGA2BA|
G2Bdg3d|egdBA2GA|Bdde dBAB|G4G4:|
|:afded2ga|bagba2ba|g2gf gedB|BAAGA2BA|
G2Bdg3d|egdBA2GA|Bdde dBAB|G4G4:|

